chevron-triple-left.svg

<svg fill="currentColor" viewBox="0 0 24 24"><path d="M9.42 7.41 4.83 12l4.59 4.59L8 18l-6-6 6-6zm6 0L10.83 12l4.59 4.59L14 18l-6-6 6-6zm6 0L16.83 12l4.59 4.59L20 18l-6-6 6-6z"/></svg>

<svg  viewBox="0 0 24 24" fill="currentColor"><path  d="M9.42,7.41L4.83,12L9.42,16.59L8,18L2,12L8,6L9.42,7.41M15.42,7.41L10.83,12L15.42,16.59L14,18L8,12L14,6L15.42,7.41M21.42,7.41L16.83,12L21.42,16.59L20,18L14,12L20,6L21.42,7.41Z"/></svg>
